X: 21148
T: Kate Noctor's
R: jig
M: 6/8
K: Dmajor
|:DFA B,CD|B,CB, A,2 E|DFA BAF|BAF EDC|
DFA B,CD|B,CB, A,2 E|DFA dAF|GEC D2 E:|
|:DFA BAF|BAF EDC|DFA BAF|ABc d2 e|
fed BAF|BAF EDC|DFA B,CD|EDC D2 E:|

